assets/hidebar-icon.svg

<svg width="29" height="30" viewBox="0 0 29 30" fill="none" xmlns="http://www.w3.org/2000/svg">
<path id="Vector" d="M17.8253 7.4599L9.63472 13.3047C8.79094 13.9068 8.79094 14.8842 9.63472 15.4891L18.0019 21.4599M14.5048 28.4537C11.6692 28.4537 8.83681 28.4699 6.00119 28.4504C2.82816 28.4244 1.02751 26.6366 1.01777 23.4696C0.998307 17.801 0.998307 12.129 1.01777 6.46038C1.03075 3.28696 2.82491 1.48934 5.99795 1.47636C11.6659 1.45689 17.3372 1.45689 23.0052 1.47636C26.1814 1.4861 27.9756 3.28047 27.9853 6.45389C28.0048 12.1226 28.0048 17.7945 27.9853 23.4631C27.9756 26.6366 26.1782 28.4245 23.0052 28.4504C20.1695 28.4731 17.3372 28.4537 14.5015 28.4537H14.5048ZM2.29607 14.8936C2.29607 17.6744 2.28634 20.4552 2.29607 23.236C2.3058 25.9973 3.44459 27.1622 6.17639 27.1687C11.7373 27.1817 17.2982 27.1817 22.8559 27.1687C25.5098 27.1622 26.6973 25.9941 26.7038 23.3723C26.7168 17.7588 26.7168 12.142 26.7038 6.52852C26.6973 3.97811 25.5066 2.7678 22.9889 2.76131C17.3209 2.74508 11.6562 2.74508 5.98821 2.7613C3.54842 2.76779 2.32203 3.98135 2.29932 6.39548C2.27336 9.2282 2.29283 12.0642 2.29283 14.8969L2.29607 14.8936Z" stroke="black" stroke-width="2" stroke-miterlimit="10"/>
</svg>

<?xml version="1.0" encoding="utf-8"?>
<!-- Generator: Adobe Illustrator 27.1.1, SVG Export Plug-In . SVG Version: 6.00 Build 0)  -->
<svg version="1.1" id="Layer_1" xmlns="http://www.w3.org/2000/svg" xmlns:xlink="http://www.w3.org/1999/xlink" x="0px" y="0px"
	 viewBox="0 0 29 30" style="enable-background:new 0 0 29 30;" xml:space="preserve">
<style type="text/css">
	.st0{fill:none;stroke:#000000;stroke-width:2;stroke-miterlimit:10;}
</style>
<path id="Vector" class="st0" d="M11,21.5l8.4-6c0.8-0.6,0.8-1.6,0-2.2l-8.2-5.8 M14.5,28.5c-2.8,0-5.7,0-8.5,0c-3.2,0-5-1.8-5-5
	c0-5.7,0-11.3,0-17c0-3.2,1.8-5,5-5c5.7,0,11.3,0,17,0c3.2,0,5,1.8,5,5c0,5.7,0,11.3,0,17c0,3.2-1.8,5-5,5
	C20.2,28.5,17.3,28.5,14.5,28.5L14.5,28.5z M26.7,14.9c0-2.8,0-5.7,0-8.5c0-2.4-1.2-3.6-3.7-3.6c-5.7,0-11.3,0-17,0
	C3.5,2.8,2.3,4,2.3,6.5c0,5.6,0,11.2,0,16.8c0,2.6,1.2,3.8,3.8,3.8c5.6,0,11.1,0,16.7,0c2.7,0,3.9-1.2,3.9-3.9
	C26.7,20.5,26.7,17.7,26.7,14.9L26.7,14.9z"/>
</svg>
